packages/foundations/assets/icons/functional/images/audio & video/volume_up_16.svg

<svg width="16" height="16" viewBox="0 0 16 16" fill="none" xmlns="http://www.w3.org/2000/svg">
<g clip-path="url(#clip0_184_442)">
<path fill-rule="evenodd" clip-rule="evenodd" d="M7.20001 3.20003C7.65001 3.20003 8.00001 3.57503 8.00001 4.00003V12C8.00001 12.45 7.65001 12.8 7.20001 12.8C7.05001 12.8 6.90001 12.75 6.77501 12.675L4.57501 11.2H4.00001C2.67501 11.2 1.60001 10.125 1.60001 8.82503V7.22503C1.60001 5.90003 2.67501 4.80003 4.00001 4.80003H4.57501L6.77501 3.35003C6.90001 3.25003 7.05001 3.20003 7.20001 3.20003ZM6.40001 5.50003L5.25001 6.27503C5.11433 6.35722 4.95864 6.40047 4.80001 6.40003H4.00001C3.55001 6.40003 3.20001 6.77503 3.20001 7.20003V8.80003C3.20001 9.25003 3.55001 9.60003 4.00001 9.60003H4.80001C4.97501 9.60003 5.12501 9.65003 5.25001 9.75003L6.40001 10.5V5.50003ZM9.60001 10.375C10.4 10.375 11.2 9.17503 11.2 7.97503C11.2 6.77503 10.4 5.60003 9.60001 5.60003C9.20001 5.60003 8.80001 5.97503 8.80001 6.40003C8.80001 7.17503 9.60001 7.17503 9.60001 7.97503C9.60001 8.77503 8.80001 8.77503 8.80001 9.57503C8.80001 9.97503 9.20001 10.375 9.60001 10.375ZM11.2 13.6C11.4 13.6 11.575 13.525 11.725 13.4C12.5302 12.7318 13.1848 11.9007 13.6458 10.9614C14.1069 10.022 14.3639 8.99577 14.4 7.95003C14.4 6.15003 13.425 4.22503 11.75 2.62503C11.6776 2.55323 11.5918 2.49641 11.4974 2.4578C11.403 2.41919 11.302 2.39956 11.2 2.40003C10.775 2.40003 10.4 2.77503 10.4 3.20003C10.4 3.42503 10.5 3.65003 10.65 3.80003C12 5.05003 12.8 6.62503 12.8 7.95003C12.7621 8.76754 12.5535 9.56806 12.1875 10.3C11.8215 11.032 11.3063 11.6792 10.675 12.2C10.5891 12.2747 10.5201 12.3668 10.4727 12.4703C10.4252 12.5738 10.4005 12.6862 10.4 12.8C10.4 13.25 10.775 13.6 11.2 13.6Z" fill="#1A1C1F"/>
</g>
<defs>
<clipPath id="clip0_184_442">
<rect width="16" height="16" fill="white"/>
</clipPath>
</defs>
</svg>

<svg xmlns="http://www.w3.org/2000/svg" width="16" height="16" fill="none"><g clip-path="url(#a)"><path fill="#1A1C1F" fill-rule="evenodd" d="M7.2 3.2c.45 0 .8.375.8.8v8c0 .45-.35.8-.8.8-.15 0-.3-.05-.425-.125l-2.2-1.475H4c-1.325 0-2.4-1.075-2.4-2.375v-1.6C1.6 5.9 2.675 4.8 4 4.8h.575l2.2-1.45c.125-.1.275-.15.425-.15m-.8 2.3-1.15.775a.86.86 0 0 1-.45.125H4c-.45 0-.8.375-.8.8v1.6c0 .45.35.8.8.8h.8q.263 0 .45.15l1.15.75zm3.2 4.875c.8 0 1.6-1.2 1.6-2.4S10.4 5.6 9.6 5.6c-.4 0-.8.375-.8.8 0 .775.8.775.8 1.575s-.8.8-.8 1.6c0 .4.4.8.8.8m1.6 3.225c.2 0 .375-.075.525-.2A7.41 7.41 0 0 0 14.4 7.95c0-1.8-.975-3.725-2.65-5.325a.78.78 0 0 0-.55-.225c-.425 0-.8.375-.8.8 0 .225.1.45.25.6C12 5.05 12.8 6.625 12.8 7.95a5.86 5.86 0 0 1-2.125 4.25.8.8 0 0 0-.275.6c0 .45.375.8.8.8" clip-rule="evenodd"/></g><defs><clipPath id="a"><path fill="#fff" d="M0 0h16v16H0z"/></clipPath></defs></svg>
